assets/img/braze_icons/lock-01.svg

<svg fill="none" height="24" viewBox="0 0 24 24" width="24" xmlns="http://www.w3.org/2000/svg"><path clip-rule="evenodd" d="m6 8c0-3.31371 2.68629-6 6-6 3.3137 0 6 2.68629 6 6v1.15032c.2826.06193.5539.15211.816.28566.7526.38349 1.3645.99542 1.748 1.74802.2473.4854.3459 1.0021.3918 1.5642.0442.5412.0442 1.2055.0442 2.0105v1.4826c0 .805 0 1.4693-.0442 2.0105-.0459.5621-.1445 1.0788-.3918 1.5642-.3835.7526-.9954 1.3645-1.748 1.748-.4854.2473-1.0021.3459-1.5642.3918-.5412.0442-1.2055.0442-2.0105.0442h-6.48257c-.80498 0-1.46935 0-2.01055-.0442-.5621-.0459-1.0788-.1445-1.56414-.3918-.75265-.3835-1.36457-.9954-1.74806-1.748-.2473-.4854-.34586-1.0021-.39178-1.5642-.04422-.5412-.04421-1.2055-.0442-2.0105v-1.4826c-.00001-.805-.00002-1.4693.0442-2.0105.04592-.5621.14448-1.0788.39178-1.5642.38349-.7526.99541-1.36453 1.74806-1.74802.2621-.13355.53335-.22372.81596-.28566zm10 0v1.00163h-8v-1.00163c0-2.20914 1.79086-4 4-4 2.2091 0 4 1.79086 4 4zm-3 6.5c0-.5523-.4477-1-1-1s-1 .4477-1 1v2c0 .5523.4477 1 1 1s1-.4477 1-1z" fill="#801ed7" fill-rule="evenodd"/></svg>

<svg width="24" height="24" viewBox="0 0 24 24" fill="none" xmlns="http://www.w3.org/2000/svg">
<path fill-rule="evenodd" clip-rule="evenodd" d="M6 8C6 4.68629 8.68629 2 12 2C15.3137 2 18 4.68629 18 8V9.15032C18.2826 9.21225 18.5539 9.30243 18.816 9.43598C19.5686 9.81947 20.1805 10.4314 20.564 11.184C20.8113 11.6694 20.9099 12.1861 20.9558 12.7482C21 13.2894 21 13.9537 21 14.7587V16.2413C21 17.0463 21 17.7106 20.9558 18.2518C20.9099 18.8139 20.8113 19.3306 20.564 19.816C20.1805 20.5686 19.5686 21.1805 18.816 21.564C18.3306 21.8113 17.8139 21.9099 17.2518 21.9558C16.7106 22 16.0463 22 15.2413 22H8.75873C7.95375 22 7.28938 22 6.74818 21.9558C6.18608 21.9099 5.66938 21.8113 5.18404 21.564C4.43139 21.1805 3.81947 20.5686 3.43598 19.816C3.18868 19.3306 3.09012 18.8139 3.0442 18.2518C2.99998 17.7106 2.99999 17.0463 3 16.2413V14.7587C2.99999 13.9537 2.99998 13.2894 3.0442 12.7482C3.09012 12.1861 3.18868 11.6694 3.43598 11.184C3.81947 10.4314 4.43139 9.81947 5.18404 9.43598C5.44614 9.30243 5.71739 9.21226 6 9.15032V8ZM16 8V9.00163H8V8C8 5.79086 9.79086 4 12 4C14.2091 4 16 5.79086 16 8ZM13 14.5C13 13.9477 12.5523 13.5 12 13.5C11.4477 13.5 11 13.9477 11 14.5V16.5C11 17.0523 11.4477 17.5 12 17.5C12.5523 17.5 13 17.0523 13 16.5V14.5Z" fill="#801ED7"/>
</svg>
